assets/img/braze_icons/refresh-ccw-03.svg

<svg fill="none" height="24" viewBox="0 0 24 24" width="24" xmlns="http://www.w3.org/2000/svg"><g fill="#801ed7"><path d="m19.071 19.0711c3.9053-3.9052 3.9053-10.23689 0-14.14213-.7981-.79811-1.4663-1.4293-2.0247-1.92897h2.9537c.5523 0 1-.44771 1-1 0-.55228-.4477-1-1-1h-6c-.5523 0-1 .44772-1 1v6c0 .55228.4477 1 1 1s1-.44772 1-1v-4.12567c.6172.51219 1.4787 1.29075 2.6568 2.46885 3.1242 3.1242 3.1242 8.18952 0 11.31372-1.108 1.108-2.4574 1.8218-3.8781 2.1441-.5386.1222-.8761.6579-.7539 1.1965s.6578.8761 1.1964.7539c1.7779-.4034 3.4673-1.2977 4.8498-2.6803z"/><path d="m10.2213 4.19906c.5386-.1222.8761-.65788.7539-1.19648-.1222-.53859-.6579-.87615-1.19647-.75394-1.77787.40338-3.46724 1.29776-4.8498 2.68031-3.90524 3.90525-3.90524 10.23685 0 14.14215.79778.7978 1.46595 1.429 2.02463 1.9289h-2.95359c-.55228 0-1 .4477-1 1s.44772 1 1 1h6c.55233 0 1.00003-.4477 1.00003-1v-6c0-.5523-.4477-1-1.00003-1-.55228 0-1 .4477-1 1v4.1257c-.61639-.5115-1.47791-1.2899-2.65683-2.4688-3.12419-3.1242-3.12419-8.18954.00001-11.31373 1.10799-1.10799 2.45742-1.82176 3.87815-2.14411z"/></g></svg>

<svg width="24" height="24" viewBox="0 0 24 24" fill="none" xmlns="http://www.w3.org/2000/svg">
<path d="M19.071 19.0711C22.9763 15.1659 22.9763 8.83421 19.071 4.92897C18.2729 4.13086 17.6047 3.49967 17.0463 3H20C20.5523 3 21 2.55229 21 2C21 1.44772 20.5523 1 20 1L14 1C13.4477 1 13 1.44772 13 2V8C13 8.55228 13.4477 9 14 9C14.5523 9 15 8.55228 15 8V3.87433C15.6172 4.38652 16.4787 5.16508 17.6568 6.34318C20.781 9.46738 20.781 14.5327 17.6568 17.6569C16.5488 18.7649 15.1994 19.4787 13.7787 19.801C13.2401 19.9232 12.9026 20.4589 13.0248 20.9975C13.147 21.5361 13.6826 21.8736 14.2212 21.7514C15.9991 21.348 17.6885 20.4537 19.071 19.0711Z" fill="#801ED7"/>
<path d="M10.2213 4.19906C10.7599 4.07686 11.0974 3.54118 10.9752 3.00258C10.853 2.46399 10.3173 2.12643 9.77873 2.24864C8.00086 2.65202 6.31149 3.5464 4.92893 4.92895C1.02369 8.8342 1.02369 15.1658 4.92893 19.0711C5.72671 19.8689 6.39488 20.5001 6.95356 21H3.99997C3.44769 21 2.99997 21.4477 2.99997 22C2.99997 22.5523 3.44769 23 3.99997 23H9.99997C10.5523 23 11 22.5523 11 22V16C11 15.4477 10.5523 15 9.99997 15C9.44769 15 8.99997 15.4477 8.99997 16L8.99997 20.1257C8.38358 19.6142 7.52206 18.8358 6.34314 17.6569C3.21895 14.5327 3.21895 9.46736 6.34315 6.34317C7.45114 5.23518 8.80057 4.52141 10.2213 4.19906Z" fill="#801ED7"/>
</svg>
